X:1
T:Title
%%score { ( 1 3 ) | 2 }
L:1/8
Q:1/4=100
M:4/4
K:D
V:1 treble nm="Grand Piano"
V:3 treble 
V:2 bass 
V:1
 [DF]3 [EG] [FA]2 [FA]2 | [GB]2 [FA]2 [CEG]4 | [A,CE]3 [A,DF] [CEG]2 [CEG]2 | [CFA]2 [CEG]2 [DF]4 | %4
w: D.~B.~Towner * * *||||
 [A,DF]3 [A,EG] [DFA]2 [DFA]2 | [DFd]2 [DAc]2 [DGB]4 | [E^GB]3 [DGB] [CAc]2 [Bd]2 | %7
w: |||
[M:9/8] [Bd]3 [Ac] c2- [Gc]3 |[M:4/4] [Fd]3 [GB] [FA]2 [A,DF][A,DF] | [DFA]2 [DFA]2 [CEG]4 | %10
w: |||
 c2 c2 G3 G | [GB]2 [GB]2 [FA]4 | [Fd]3 [GB] [FA]2 [DF][DF] | [FA]2 [FA]2 B4 | c2 d2 d3 A | %15
w: |||||
 [DF]2 [CE]2 D4 |] %16
w: |
V:2
 [D,A,]3 [D,A,] [D,D]2 [D,D]2 | [D,D]2 [D,D]2 A,,4 | A,,3 A,, A,,2 A,,2 | A,,2 A,,2 D,4 | %4
 D,3 D, D,2 D,2 | D,2 F,2 G,4 | E,3 E, E,2 [E,B,]2 |[M:9/8] [A,,A,]3 [A,,A,] [A,,A,]2- [A,,A,]3 | %8
[M:4/4] [D,A,]3 [D,D] [D,D]2 D,D, | A,,2 A,,2 A,,4 | [A,EG]2 [A,EG]2[K:bass] [A,CE]3 [A,CE] | %11
 [D,D]2 [D,D]2 [D,D]4 | [D,A,]3 [D,D] [D,D]2 [D,A,][D,A,] | [D,D]2 [D,D]2[K:treble] [G,DG]4 | %14
 [^G,B,=F]2 [G,B,F]2 [A,^F]3 [A,DF] | [A,,A,]2 [A,,G,]2 [D,F,]4 |] %16
V:3
 x8 | x8 | x8 | x8 | x8 | x8 | x8 |[M:9/8] z3 z A2 z3 |[M:4/4] x8 | x8 | x8 | x8 | x8 | x8 | x8 | %15
 x8 |] %16

